pwa/public/bubbles5.svg

<svg width="68" height="457" viewBox="0 0 68 457" fill="none" xmlns="http://www.w3.org/2000/svg">
<circle cx="13.6784" cy="166.988" r="12.4968" transform="rotate(-0.630512 13.6784 166.988)" fill="white" fill-opacity="0.48"/>
<circle cx="18.7524" cy="222.472" r="8.03365" transform="rotate(-0.630512 18.7524 222.472)" fill="white" fill-opacity="0.48"/>
<path d="M34.9352 297.079L34.9351 297.09L34.9351 297.095C34.8383 305.518 28.4275 313.758 18.2645 314.046C9.86713 314.283 1.60849 307.7 1.24354 297.633L1.24353 297.633C0.881815 287.711 9.34107 280.594 17.7862 280.453C26.2322 280.312 35.0415 287.243 34.9352 297.079ZM11.3868 303.602C13.3133 304.978 15.8219 305.717 18.3451 305.658L27.5491 297.295L28.549 297.312C28.549 297.312 28.549 297.312 28.549 297.312C28.5924 294.745 27.1546 292.649 25.1813 291.245C23.2122 289.845 20.6238 289.061 18.0949 289.098C15.5706 289.135 13.0235 289.985 11.1102 291.439C9.19054 292.899 7.83674 295.034 7.94668 297.605L7.94679 297.607C8.0616 300.153 9.44853 302.217 11.3868 303.602Z" stroke="white" stroke-width="2"/>
<path d="M47.9028 447.945L47.9027 447.956L47.9028 447.962C47.806 456.385 41.3952 464.624 31.2321 464.913C22.8348 465.149 14.5761 458.566 14.2112 448.5L14.2112 448.499C13.8495 438.578 22.3087 431.461 30.7538 431.319C39.1998 431.178 48.0091 438.11 47.9028 447.945ZM24.3545 454.468C26.2809 455.844 28.7895 456.584 31.3128 456.525L40.5168 448.162L41.5166 448.179C41.5166 448.178 41.5166 448.178 41.5166 448.178C41.56 445.611 40.1223 443.515 38.149 442.112C36.1798 440.711 33.5914 439.927 31.0626 439.964C28.5382 440.001 25.9911 440.851 24.0779 442.306C22.1582 443.765 20.8044 445.901 20.9143 448.471L20.9144 448.474C21.0293 451.02 22.4162 453.084 24.3545 454.468Z" stroke="white" stroke-width="2"/>
<path d="M48.0099 69.5004C42.4408 69.4659 38.845 65.0231 38.6931 60.4275C38.5177 55.0133 43.2669 51.1347 47.8751 51.108C52.4833 51.0812 57.2154 54.8602 57.1355 60.3155C57.0561 65.8188 52.6187 69.5263 48.0099 69.4956L48.0099 69.5004Z" fill="white"/>
<circle cx="31.0444" cy="393.068" r="29.7543" transform="rotate(-0.630512 31.0444 393.068)" fill="white" fill-opacity="0.48"/>
<circle cx="50.0528" cy="254.651" r="17.555" transform="rotate(-0.630512 50.0528 254.651)" fill="white" fill-opacity="0.48"/>
<circle cx="27.6027" cy="107.368" r="8.03365" transform="rotate(-0.630512 27.6027 107.368)" fill="white" fill-opacity="0.48"/>
<circle cx="35.0853" cy="84.2842" r="8.03365" transform="rotate(-0.630512 35.0853 84.2842)" fill="white" fill-opacity="0.48"/>
<circle cx="48.4342" cy="134.604" r="12.4968" transform="rotate(-0.630512 48.4342 134.604)" fill="white" fill-opacity="0.48"/>
<path d="M48.2991 322.12C39.8214 322.257 31.2844 329.394 31.6499 339.426C32.0162 349.537 40.3222 356.175 48.7988 355.933C59.0252 355.641 65.4691 347.332 65.5564 338.878C65.6623 328.919 56.7769 321.983 48.2991 322.12ZM48.7238 349.921C43.9228 350.056 39.2195 346.29 39.0112 340.554C38.8035 334.866 43.6496 330.833 48.4514 330.758C53.2575 330.679 58.2836 334.612 58.2226 340.255C58.1741 345.043 54.5185 349.756 48.7194 349.921L48.7238 349.921Z" fill="white"/>
<path d="M27.5182 186.34C23.0563 186.417 18.5712 190.914 18.7752 197.251C18.9798 203.637 23.3591 207.839 27.8203 207.696C33.2024 207.524 36.5844 202.283 36.6206 196.944C36.6648 190.655 31.9801 186.263 27.5182 186.34ZM27.7739 203.899C25.2471 203.979 22.7673 201.595 22.651 197.972C22.5351 194.379 25.0811 191.838 27.6083 191.796C30.1378 191.752 32.7877 194.242 32.7622 197.805C32.7422 200.829 30.8236 203.802 27.7716 203.899L27.7739 203.899Z" fill="white"/>
</svg>

<svg xmlns="http://www.w3.org/2000/svg" width="68" height="457" fill="none" xmlns:v="https://vecta.io/nano"><style><![CDATA[.B{fill-opacity:.48}]]></style><g fill="#fff" class="B"><circle cx="13.678" cy="166.988" r="12.497" transform="rotate(359.369 13.678 166.988)"/><circle cx="18.752" cy="222.472" r="8.034" transform="rotate(359.369 18.752 222.472)"/></g><path d="M34.935 297.079v.011.005c-.097 8.423-6.508 16.663-16.671 16.951-8.397.237-16.656-6.346-17.021-16.413h0c-.362-9.922 8.098-17.039 16.543-17.18s17.255 6.79 17.149 16.626zm-23.548 6.523c1.927 1.376 4.435 2.115 6.958 2.056l9.204-8.363 1 .017c.043-2.567-1.394-4.663-3.368-6.067s-4.558-2.184-7.086-2.147-5.071.887-6.985 2.341c-1.92 1.46-3.273 3.595-3.164 6.166v.002c.115 2.546 1.502 4.61 3.44 5.995zm36.516 144.343v.011.006c-.097 8.423-6.508 16.662-16.671 16.951-8.397.236-16.656-6.347-17.021-16.413v-.001c-.362-9.921 8.098-17.038 16.543-17.18s17.255 6.791 17.149 16.626zm-23.548 6.523c1.926 1.376 4.435 2.116 6.958 2.057l9.204-8.363 1 .017c.043-2.568-1.394-4.664-3.368-6.067s-4.558-2.185-7.086-2.148-5.071.887-6.985 2.342c-1.92 1.459-3.273 3.595-3.164 6.165v.003c.115 2.546 1.502 4.61 3.44 5.994z" stroke="#fff" stroke-width="2"/><g fill="#fff"><path d="M48.01 69.5c-5.569-.034-9.165-4.477-9.317-9.073-.175-5.414 4.574-9.293 9.182-9.32s9.34 3.752 9.26 9.208c-.079 5.503-4.517 9.211-9.126 9.18v.005z"/><circle cx="31.044" cy="393.068" r="29.754" transform="rotate(359.369 31.044 393.068)" class="B"/><circle cx="50.053" cy="254.651" r="17.555" transform="rotate(359.369 50.053 254.651)" class="B"/><circle cx="27.603" cy="107.368" r="8.034" transform="rotate(359.369 27.603 107.368)" class="B"/><circle cx="35.085" cy="84.284" r="8.034" transform="rotate(359.369 35.085 84.284)" class="B"/><circle cx="48.434" cy="134.604" r="12.497" transform="rotate(359.369 48.434 134.604)" class="B"/><path d="M48.299 322.12c-8.478.137-17.015 7.274-16.649 17.306.366 10.111 8.672 16.749 17.149 16.507 10.226-.292 16.67-8.601 16.758-17.055.106-9.959-8.779-16.895-17.257-16.758zm.425 27.801c-4.801.135-9.504-3.631-9.713-9.367-.208-5.688 4.638-9.721 9.44-9.796s9.832 3.854 9.771 9.497c-.048 4.788-3.704 9.501-9.503 9.666h.004zM27.518 186.34c-4.462.077-8.947 4.574-8.743 10.911.205 6.386 4.584 10.588 9.045 10.445 5.382-.172 8.764-5.413 8.8-10.752.044-6.289-4.641-10.681-9.102-10.604zm.256 17.559c-2.527.08-5.007-2.304-5.123-5.927-.116-3.593 2.43-6.134 4.957-6.176s5.179 2.446 5.154 6.009c-.02 3.024-1.939 5.997-4.991 6.094h.002z"/></g></svg>
